dist/assets/images/logo.svg

<svg width="360" height="48" viewBox="0 0 360 48" fill="none" xmlns="http://www.w3.org/2000/svg">
<g clip-path="url(#clip0_220_17008)">
<path d="M33.2853 46.2852C34.2819 45.3597 35.1556 44.3437 35.8933 43.2435C39.1292 38.4027 39.7181 31.9829 37.6019 24.6635C36.9223 22.3208 36.7864 20.0492 37.1941 17.9265C37.5695 15.9527 38.4043 14.1471 39.6728 12.5616C41.2389 10.5942 43.3681 9.08629 45.8338 8.13496C45.8338 8.13496 47.6782 7.41014 49.3673 8.00553C51.0564 8.60092 52.4413 9.89524 52.9978 11.0601C53.2826 11.6555 53.2955 12.6198 52.2083 12.6716C49.6455 12.801 46.811 14.2636 45.4584 17.3247C44.1058 20.3857 45.0572 23.2915 46.0538 24.7411C46.9728 26.0808 50.0662 29.789 50.5386 32.8242C51.2052 37.1084 49.5744 40.9267 45.9567 43.3729C41.3036 46.5181 36.1587 47.6442 34.2237 47.9807C33.1559 48.1684 32.5993 46.9517 33.3047 46.2852" fill="#17479E"/>
<path d="M18.3099 1.92217C25.7134 -0.776495 35.1038 -0.815325 43.025 2.97704C43.6981 3.30063 43.834 4.37491 43.0056 4.76968C36.8317 7.69485 31.9197 13.9141 32.884 22.4307C23.2931 22.4566 16.1419 15.0013 15.333 6.69175C15.1065 4.34903 16.5561 2.56286 18.3164 1.9157L18.3099 1.92217Z" fill="#D2232A"/>
<path d="M33.7772 26.6179C36.0293 35.0699 34.1914 42.8358 25.1246 46.447C20.1285 48.4402 15.3201 47.1589 10.5829 44.1172C7.03645 41.8392 5.78743 39.1082 6.17573 35.9047C6.38282 34.2091 6.60285 32.8436 3.9236 30.5268C0.907827 27.9123 -0.159991 26.0225 0.901355 20.6511C2.07272 14.7555 5.66447 9.93411 9.57333 6.80184C10.2011 6.29706 11.1071 6.71124 11.1848 7.46842C12.1102 16.4251 20.1091 27.0386 33.7772 26.6179V26.6179Z" fill="#00AB4E"/>
<path d="M56.9714 20.3987C56.9714 22.832 54.9911 24.8123 52.5577 24.8253C50.1244 24.8382 48.157 22.8773 48.157 20.444C48.157 18.0107 50.1374 16.0303 52.5707 16.0174C55.004 16.0045 56.9714 17.9654 56.9649 20.3987H56.9714Z" fill="#F7941D"/>
<path fill-rule="evenodd" clip-rule="evenodd" d="M112.446 9.84988L112.433 16.3927C111.508 19.2661 109.786 20.8775 107.282 21.227L105.463 21.2011V26.0678L108.356 26.0354C110.925 25.4012 113.074 24.1133 114.789 22.1589C116.581 24.3593 118.717 25.7377 121.364 25.8995L128.308 25.8801V34.1896L113.676 34.2414V28.6629H109.068L109.081 37.1925C109.366 38.0985 109.903 38.7262 111.003 38.7327L133.168 38.6809L133.103 15.3055C133.097 14.6389 133.382 14.2635 133.951 14.1729L138.87 14.1859V9.77869L129.376 9.75928C128.696 10.3676 128.263 11.0342 128.172 12.2185L128.431 21.1752L122.309 21.1429C119.714 20.7546 117.818 19.2014 116.931 15.9332V9.86282L112.465 9.84988H112.446Z" fill="black"/>
<path fill-rule="evenodd" clip-rule="evenodd" d="M149.781 9.87576V17.2275C149.095 20.6251 146.979 22.7155 143.872 23.9062L141.717 23.9192L141.704 28.6952L143.911 28.6693C147.341 27.8798 149.981 26.1842 152.137 23.5309C154.563 26.4625 157.547 28.0675 161.048 28.4687L164.983 28.3781L164.97 38.7004L169.506 38.7198L169.39 9.77222L164.614 9.86282L164.64 24.2622L161.941 24.1263C157.812 23.628 155.502 20.8452 154.434 16.5092L154.408 9.82399L149.787 9.86282L149.781 9.87576Z" fill="black"/>
<path fill-rule="evenodd" clip-rule="evenodd" d="M84.0162 21.8029C85.6924 16.9104 84.8122 13.1957 81.8159 10.4646C78.3147 8.13486 74.5224 7.79833 70.2964 10.3611C67.4683 13.0856 66.6917 16.7939 67.9731 21.4793C70.5164 25.6794 73.914 26.9802 77.907 26.2878C76.2115 30.9538 77.0657 34.8885 80.4504 38.0855C84.411 40.5706 88.2487 40.6159 91.9634 38.2149C94.0278 36.5194 95.0892 34.2478 95.4581 31.5751V21.2593L101.263 21.3175L101.25 16.5609H95.5551L95.5422 13.9787L101.257 13.9917L101.237 9.40329H91.9634C91.1933 9.57803 90.7661 10.1087 90.695 11.0018L90.7985 22.6507C91.038 21.79 84.521 20.8775 84.0162 21.8029V21.8029ZM76.2244 13.351C78.4959 13.351 80.3468 15.2213 80.3468 17.5187C80.3468 19.8161 78.4959 21.6864 76.2244 21.6864C73.9529 21.6864 72.102 19.8097 72.102 17.5187C72.102 15.2278 73.9529 13.351 76.2244 13.351ZM86.2101 26.1777C88.6823 26.1777 90.7014 28.2163 90.7014 30.7208C90.7014 33.2253 88.6823 35.2639 86.2101 35.2639C83.738 35.2639 81.7188 33.2253 81.7188 30.7208C81.7188 28.2163 83.738 26.1777 86.2101 26.1777" fill="black"/>
</g>
<path d="M182.935 34.59V38.37H212.265V34.59H182.935ZM195.22 27.66V35.5H199.875V27.66H195.22ZM186.015 11.77V28.64H209.08V11.77H204.46V16.74H190.635V11.77H186.015ZM190.635 20.38H204.46V24.93H190.635V20.38ZM239.317 9.705V33.4H243.972V9.705H239.317ZM233.717 19.12V22.9H239.982V19.12H233.717ZM229.097 12.12V14.22C229.097 19.715 224.687 24.195 217.232 26.54L219.157 30.25C228.572 27.275 233.997 20.87 233.997 12.12H229.097ZM218.912 12.12V15.865H232.072V12.12H218.912ZM222.727 37.845V41.555H244.777V37.845H222.727ZM222.727 31.055V39.98H227.417V31.055H222.727ZM250.829 34.52V38.335H280.159V34.52H250.829ZM263.009 27.31V35.535H267.629V27.31H263.009ZM262.834 11.49V13.835C262.834 18.315 258.879 23.285 251.494 24.475L253.419 28.36C261.889 26.82 266.894 20.73 266.894 13.835V11.49H262.834ZM263.744 11.49V13.835C263.744 20.835 268.749 26.785 277.254 28.36L279.179 24.475C271.759 23.285 267.804 18.42 267.804 13.835V11.49H263.744ZM311.956 16.95V20.695H318.116V16.95H311.956ZM316.891 9.705V27.415H321.546V9.705H316.891ZM300.021 28.745V41.765H321.546V28.745H316.926V31.685H304.641V28.745H300.021ZM304.641 35.29H316.926V38.055H304.641V35.29ZM301.911 12.19V14.255C301.911 18.35 299.601 22.585 294.246 24.335L296.591 28.045C302.821 25.98 305.691 20.345 305.691 14.255V12.19H301.911ZM302.891 12.19V14.255C302.891 20.03 305.656 25.385 311.676 27.38L313.951 23.775C308.841 22.06 306.636 18.035 306.636 14.255V12.19H302.891ZM295.506 11.175V14.885H312.936V11.175H295.506ZM340.584 10.65V12.155C340.584 15.97 336.909 20.205 329.454 21.185L331.274 24.93C339.779 23.67 344.679 18.385 344.679 12.155V10.65H340.584ZM341.459 10.65V12.155C341.459 18.385 346.359 23.67 354.864 24.93L356.649 21.185C349.229 20.205 345.519 15.935 345.519 12.155V10.65H341.459ZM340.619 30.25V42.115H345.239V30.25H340.619ZM328.404 27.31V31.09H357.699V27.31H328.404Z" fill="black"/>
<defs>
<clipPath id="clip0_220_17008">
<rect width="169" height="48" fill="white" transform="translate(0.5)"/>
</clipPath>
</defs>
</svg>

<svg width="360" height="48" fill="none" xmlns="http://www.w3.org/2000/svg"><g clip-path="url(#clip0_220_17008)"><path d="M33.285 46.285a17.305 17.305 0 002.608-3.041c3.236-4.841 3.825-11.261 1.709-18.58-.68-2.343-.816-4.615-.408-6.738a12.14 12.14 0 012.479-5.364c1.566-1.968 3.695-3.476 6.16-4.427 0 0 1.845-.725 3.534-.13 1.69.596 3.074 1.89 3.63 3.055.286.595.298 1.56-.789 1.612-2.563.129-5.397 1.592-6.75 4.653-1.352 3.06-.4 5.966.596 7.416.919 1.34 4.012 5.048 4.485 8.083.666 4.284-.965 8.103-4.582 10.549-4.653 3.145-9.798 4.271-11.733 4.608-1.068.187-1.625-1.03-.92-1.696" fill="#17479E"/><path d="M18.31 1.922C25.713-.776 35.104-.815 43.025 2.977c.673.324.809 1.398-.02 1.793-6.173 2.925-11.085 9.144-10.121 17.66-9.59.027-16.742-7.429-17.551-15.738-.226-2.343 1.223-4.13 2.983-4.776l-.006.006z" fill="#D2232A"/><path d="M33.777 26.618c2.252 8.452.414 16.218-8.652 19.829-4.997 1.993-9.805.712-14.542-2.33-3.547-2.278-4.796-5.009-4.407-8.212.207-1.696.427-3.061-2.252-5.378C.908 27.912-.16 26.022.9 20.65 2.072 14.754 5.663 9.933 9.572 6.8c.628-.504 1.534-.09 1.612.667.925 8.957 8.924 19.57 22.592 19.15z" fill="#00AB4E"/><path d="M56.971 20.399c0 2.433-1.98 4.413-4.413 4.426a4.372 4.372 0 01-4.401-4.381c0-2.433 1.98-4.414 4.414-4.427a4.363 4.363 0 014.394 4.382h.006z" fill="#F7941D"/><path fill-rule="evenodd" clip-rule="evenodd" d="M112.446 9.85l-.013 6.543c-.925 2.873-2.647 4.485-5.151 4.834l-1.819-.026v4.867l2.893-.033c2.569-.634 4.718-1.922 6.433-3.876 1.792 2.2 3.928 3.579 6.575 3.74l6.944-.019v8.31l-14.632.051v-5.578h-4.608l.013 8.53c.285.906.822 1.533 1.922 1.54l22.165-.052-.065-23.375c-.006-.667.279-1.042.848-1.133l4.919.013V9.779l-9.494-.02c-.68.609-1.113 1.275-1.204 2.46l.259 8.956-6.122-.032c-2.595-.388-4.491-1.942-5.378-5.21v-6.07l-4.466-.013h-.019zm37.335.026v7.351c-.686 3.398-2.802 5.488-5.909 6.68l-2.155.012-.013 4.776 2.207-.026c3.43-.79 6.07-2.485 8.226-5.138 2.426 2.931 5.41 4.537 8.911 4.938l3.935-.09-.013 10.321 4.536.02-.116-28.948-4.776.09.026 14.4-2.699-.136c-4.129-.498-6.439-3.28-7.507-7.617l-.026-6.685-4.621.039-.006.013zM84.016 21.803c1.676-4.893.796-8.607-2.2-11.338-3.501-2.33-7.294-2.667-11.52-.104-2.828 2.725-3.604 6.433-2.323 11.118 2.543 4.2 5.941 5.501 9.934 4.809-1.695 4.666-.841 8.6 2.543 11.798 3.961 2.485 7.799 2.53 11.513.129 2.065-1.696 3.126-3.967 3.495-6.64V21.26l5.805.058-.013-4.756h-5.695l-.013-2.582 5.715.013-.02-4.589h-9.274c-.77.175-1.197.706-1.268 1.599l.104 11.649c.239-.861-6.278-1.773-6.783-.848zm-7.792-8.452c2.272 0 4.123 1.87 4.123 4.168 0 2.297-1.851 4.167-4.123 4.167-2.271 0-4.122-1.876-4.122-4.167s1.85-4.168 4.122-4.168zm9.986 12.827c2.472 0 4.491 2.038 4.491 4.543 0 2.504-2.019 4.543-4.49 4.543-2.473 0-4.492-2.039-4.492-4.543 0-2.505 2.019-4.543 4.491-4.543" fill="#000"/></g><path d="M182.935 34.59v3.78h29.33v-3.78h-29.33zm12.285-6.93v7.84h4.655v-7.84h-4.655zm-9.205-15.89v16.87h23.065V11.77h-4.62v4.97h-13.825v-4.97h-4.62zm4.62 8.61h13.825v4.55h-13.825v-4.55zm48.682-10.675V33.4h4.655V9.705h-4.655zm-5.6 9.415v3.78h6.265v-3.78h-6.265zm-4.62-7v2.1c0 5.495-4.41 9.975-11.865 12.32l1.925 3.71c9.415-2.975 14.84-9.38 14.84-18.13h-4.9zm-10.185 0v3.745h13.16V12.12h-13.16zm3.815 25.725v3.71h22.05v-3.71h-22.05zm0-6.79v8.925h4.69v-8.925h-4.69zm28.102 3.465v3.815h29.33V34.52h-29.33zm12.18-7.21v8.225h4.62V27.31h-4.62zm-.175-15.82v2.345c0 4.48-3.955 9.45-11.34 10.64l1.925 3.885c8.47-1.54 13.475-7.63 13.475-14.525V11.49h-4.06zm.91 0v2.345c0 7 5.005 12.95 13.51 14.525l1.925-3.885c-7.42-1.19-11.375-6.055-11.375-10.64V11.49h-4.06zm48.212 5.46v3.745h6.16V16.95h-6.16zm4.935-7.245v17.71h4.655V9.705h-4.655zm-16.87 19.04v13.02h21.525v-13.02h-4.62v2.94h-12.285v-2.94h-4.62zm4.62 6.545h12.285v2.765h-12.285V35.29zm-2.73-23.1v2.065c0 4.095-2.31 8.33-7.665 10.08l2.345 3.71c6.23-2.065 9.1-7.7 9.1-13.79V12.19h-3.78zm.98 0v2.065c0 5.775 2.765 11.13 8.785 13.125l2.275-3.605c-5.11-1.715-7.315-5.74-7.315-9.52V12.19h-3.745zm-7.385-1.015v3.71h17.43v-3.71h-17.43zm45.078-.525v1.505c0 3.815-3.675 8.05-11.13 9.03l1.82 3.745c8.505-1.26 13.405-6.545 13.405-12.775V10.65h-4.095zm.875 0v1.505c0 6.23 4.9 11.515 13.405 12.775l1.785-3.745c-7.42-.98-11.13-5.25-11.13-9.03V10.65h-4.06zm-.84 19.6v11.865h4.62V30.25h-4.62zm-12.215-2.94v3.78h29.295v-3.78h-29.295z" fill="#000"/><defs><clipPath id="clip0_220_17008"><path fill="#fff" transform="translate(.5)" d="M0 0h169v48H0z"/></clipPath></defs></svg>
